dist/images/icons/instagram-copy.svg

<svg width="24" height="24" viewBox="0 0 24 24" fill="none" xmlns="http://www.w3.org/2000/svg">
<path d="M12.375 6.41016C9.125 6.41016 6.53516 9.05078 6.53516 12.25C6.53516 15.5 9.125 18.0898 12.375 18.0898C15.5742 18.0898 18.2148 15.5 18.2148 12.25C18.2148 9.05078 15.5742 6.41016 12.375 6.41016ZM12.375 16.0586C10.293 16.0586 8.56641 14.3828 8.56641 12.25C8.56641 10.168 10.2422 8.49219 12.375 8.49219C14.457 8.49219 16.1328 10.168 16.1328 12.25C16.1328 14.3828 14.457 16.0586 12.375 16.0586ZM19.7891 6.20703C19.7891 5.44531 19.1797 4.83594 18.418 4.83594C17.6562 4.83594 17.0469 5.44531 17.0469 6.20703C17.0469 6.96875 17.6562 7.57812 18.418 7.57812C19.1797 7.57812 19.7891 6.96875 19.7891 6.20703ZM23.6484 7.57812C23.5469 5.75 23.1406 4.125 21.8203 2.80469C20.5 1.48438 18.875 1.07812 17.0469 0.976562C15.168 0.875 9.53125 0.875 7.65234 0.976562C5.82422 1.07812 4.25 1.48438 2.87891 2.80469C1.55859 4.125 1.15234 5.75 1.05078 7.57812C0.949219 9.45703 0.949219 15.0938 1.05078 16.9727C1.15234 18.8008 1.55859 20.375 2.87891 21.7461C4.25 23.0664 5.82422 23.4727 7.65234 23.5742C9.53125 23.6758 15.168 23.6758 17.0469 23.5742C18.875 23.4727 20.5 23.0664 21.8203 21.7461C23.1406 20.375 23.5469 18.8008 23.6484 16.9727C23.75 15.0938 23.75 9.45703 23.6484 7.57812ZM21.2109 18.9531C20.8555 19.9688 20.043 20.7305 19.0781 21.1367C17.5547 21.7461 14 21.5938 12.375 21.5938C10.6992 21.5938 7.14453 21.7461 5.67188 21.1367C4.65625 20.7305 3.89453 19.9688 3.48828 18.9531C2.87891 17.4805 3.03125 13.9258 3.03125 12.25C3.03125 10.625 2.87891 7.07031 3.48828 5.54688C3.89453 4.58203 4.65625 3.82031 5.67188 3.41406C7.14453 2.80469 10.6992 2.95703 12.375 2.95703C14 2.95703 17.5547 2.80469 19.0781 3.41406C20.043 3.76953 20.8047 4.58203 21.2109 5.54688C21.8203 7.07031 21.668 10.625 21.668 12.25C21.668 13.9258 21.8203 17.4805 21.2109 18.9531Z" fill="rgb(255, 198, 117)"/>
</svg>

<svg width="24" height="24" fill="none" xmlns="http://www.w3.org/2000/svg"><path d="M12.375 6.41a5.84 5.84 0 00-5.84 5.84c0 3.25 2.59 5.84 5.84 5.84 3.2 0 5.84-2.59 5.84-5.84 0-3.2-2.64-5.84-5.84-5.84zm0 9.649a3.803 3.803 0 01-3.809-3.809c0-2.082 1.676-3.758 3.809-3.758a3.75 3.75 0 013.758 3.758c0 2.133-1.676 3.809-3.758 3.809zm7.414-9.852c0-.762-.61-1.371-1.371-1.371-.762 0-1.371.61-1.371 1.371 0 .762.61 1.371 1.371 1.371.762 0 1.371-.61 1.371-1.371zm3.86 1.371c-.102-1.828-.508-3.453-1.829-4.773-1.32-1.32-2.945-1.727-4.773-1.828-1.879-.102-7.516-.102-9.395 0-1.828.101-3.402.507-4.773 1.828-1.32 1.32-1.727 2.945-1.828 4.773-.102 1.879-.102 7.516 0 9.395.101 1.828.508 3.402 1.828 4.773 1.371 1.32 2.945 1.727 4.773 1.828 1.88.102 7.516.102 9.395 0 1.828-.101 3.453-.508 4.773-1.828 1.32-1.371 1.727-2.945 1.828-4.773.102-1.88.102-7.516 0-9.395zM21.21 18.953c-.355 1.016-1.168 1.777-2.133 2.184-1.523.61-5.078.457-6.703.457-1.676 0-5.23.152-6.703-.457a3.85 3.85 0 01-2.184-2.184c-.61-1.473-.457-5.027-.457-6.703 0-1.625-.152-5.18.457-6.703a3.917 3.917 0 012.184-2.133c1.473-.61 5.027-.457 6.703-.457 1.625 0 5.18-.152 6.703.457.965.356 1.727 1.168 2.133 2.133.61 1.523.457 5.078.457 6.703 0 1.676.152 5.23-.457 6.703z" fill="#FFC675"/></svg>
